docs/images/icons/vk.svg

<svg width="40" height="40" fill="none" xmlns="http://www.w3.org/2000/svg"><defs><clipPath id="a"><path fill="#fff" fill-opacity="0" d="M0 0h40v40H0z"/></clipPath></defs><path d="M0 0h40v40H0z"/><g clip-path="url(#a)"><path d="M22.95 23.79c3.72.56 4.9 3.49 7.26 5.53h6.04a24.48 24.48 0 0 0-6.59-8.73c2.17-2.98 4.47-5.79 5.59-10.05h-5.48c-2.15 3.26-3.28 7.08-6.82 9.6v-9.6H15l1.89 2.35v8.38c-3.08-.36-5.16-6-7.42-10.73H3.75c2.08 6.39 6.46 20.4 19.2 18.78v-5.53Z" stroke="#FFF" stroke-width="1.764" stroke-linejoin="round"/></g></svg>

<svg width="40.000000" height="40.000000" viewBox="0 0 40 40" fill="none" xmlns="http://www.w3.org/2000/svg" xmlns:xlink="http://www.w3.org/1999/xlink">
	<desc>
			Created with Pixso.
	</desc>
	<defs>
		<clipPath id="clip339_28">
			<rect id="vk-svgrepo-com 1" width="40.000000" height="40.000000" fill="white" fill-opacity="0"/>
		</clipPath>
	</defs>
	<rect id="vk-svgrepo-com 1" width="40.000000" height="40.000000" fill="#FFFFFF" fill-opacity="0"/>
	<g clip-path="url(#clip339_28)">
		<path id="Vector" d="M22.95 23.79C26.67 24.35 27.85 27.28 30.21 29.32L36.25 29.32C34.74 25.95 32.49 22.97 29.66 20.59C31.83 17.61 34.13 14.8 35.25 10.54L29.77 10.54C27.62 13.8 26.49 17.62 22.95 20.14L22.95 10.54L15 10.54L16.89 12.89L16.89 21.27C13.81 20.91 11.73 15.27 9.47 10.54L3.75 10.54C5.83 16.93 10.21 30.94 22.95 29.32L22.95 23.79Z" stroke="#FFFFFF" stroke-opacity="1.000000" stroke-width="1.763668" stroke-linejoin="round"/>
	</g>
</svg>
